X: 415
T: Xuehui changqu jie xinkuan
L: 1/16
M: 2/4
K: G
d2> g2 d2 B A [I:setbarnb 1]| 
G2> E2 d2 d B | 
A2 D2 G2 B d | 
A8 | 
d2> g2 d2 B A | 
G2> E2 d2 d B | 
A2 D2 G2 F E | 
D8 |]

@@@ Tune index: 9289
